assets/brainspace-logo.svg

<svg fill="none" height="204" viewBox="0 0 456 204" width="456" xmlns="http://www.w3.org/2000/svg" xmlns:xlink="http://www.w3.org/1999/xlink"><filter id="a" color-interpolation-filters="sRGB" filterUnits="userSpaceOnUse" height="203.58" width="375.158" x=".216797" y="0"><feFlood flood-opacity="0" result="BackgroundImageFix"/><feColorMatrix in="SourceAlpha" type="matrix" values="0 0 0 0 0 0 0 0 0 0 0 0 0 0 0 0 0 0 127 0"/><feOffset dy="4"/><feGaussianBlur stdDeviation="2"/><feColorMatrix type="matrix" values="0 0 0 0 0 0 0 0 0 0 0 0 0 0 0 0 0 0 0.25 0"/><feBlend in2="BackgroundImageFix" mode="normal" result="effect1_dropShadow"/><feBlend in="SourceGraphic" in2="effect1_dropShadow" mode="normal" result="shape"/></filter><g filter="url(#a)" stroke="#292929" stroke-width="4"><path d="m6 194.345 7.66-15.073 4.8229-11.797 3.9719-11.141 2.5533-9.174 1.9859-10.814v-9.502-8.847l-.8511-7.537-1.9859-9.502-3.6881-10.1583-3.4045-7.2089-2.5533-4.9151-1.9859-5.2428-1.4185-5.8981-.8512-7.8642v-6.8811-6.8812-4.2597l.8512-3.9321 1.4185-4.2598 1.9859-4.9151 1.4185-3.2767 1.9859-2.9491 2.5534-3.2768 2.837-2.949 4.2555-3.6044 3.9719-2.9491 5.1066-2.29372 5.1067-1.96604 5.1066-1.3107 5.6741-1.31069 6.5252-.65535h5.3903 2.2696 2.5534l4.5392.65535 2.837.65535 4.5393.65534 2.2696.65535 4.2556 1.63837 1.9859.98302 2.5533 1.3107 2.837 1.96602 3.9719 2.9491 2.8374 2.6214 2.837 2.949 2.837 4.2598 2.269 3.2768 2.554 5.5704 1.418 4.9151 1.419 4.9151 1.702 5.8982.851 4.9151v1.966 3.9321l-.851 3.6044-.568 3.2768v2.6214l.568 3.6044 1.986 2.949 2.837 3.9321 3.121 4.5875 2.837 3.932 1.986 4.2598v2.2937l-1.986 1.3107-3.405 1.6384-2.553 1.6384-2.27 1.9658-.567 3.605.567 2.621 1.135 2.621-2.837 2.949 1.135 3.933-1.135 2.293-2.27 2.622-.567 2.293.567 4.588.851 6.881-.851 3.277-1.702 1.966-2.553 1.966-4.539.655h-5.107l-5.1067-.655-4.823.655-3.1207 1.639-1.1348 3.604-1.4186 4.915-1.4185 6.226-.8511 6.881v3.932l.8511 6.226 1.4185 5.57 1.986 6.882 1.9859 6.553"/><path d="m67.9917 18.9004h-3.0415-4.3833-5.0095l-3.0415.6161-6.9776 1.335-2.8626 1.335-3.5782 2.3619-2.7731 2.8753-2.5942 3.3888-2.5048 4.2103-2.2364 3.6969-2.5942 5.648-1.2524 4.1076-.7156 3.5942v3.3887 4.2104l1.1629 2.0538 2.2364 1.643 1.1629 1.2323v1.1296l-.5367 1.335-.6262 1.643v1.5404l1.1629 2.6699 1.8786 2.67 2.7731 3.1834 2.7731 1.6431 4.115 1.5403 3.0121 1.5404h2.8025 3.5058c1.7469 0 2.8456-1.5404 2.8456-1.5404l2.7731-3.1834 2.5048-3.1834 2.5942-1.4377 2.5047-2.0538s1.6249-.6155 2.6837-.5134c1.2347.119 2.9521 1.3349 2.9521 1.3349l3.936 1.2323h2.4153l1.4313-.6161 1.8786-1.4377 2.6836-.5134 1.6997-1.335 1.5208-2.1565 1.1629-4.1076 1.5207-.6162 2.8626-1.0269 3.2204-.6161 3.2204-1.0269 2.2364-2.2592 1.8789-2.3619.984-2.8753v-3.1835l-.448-3.4914-.536-2.4646-.8054-2.4646-1.0735-2.978-2.2364-3.5942-2.2364-3.2861-2.3258-1.9511-3.131-2.3619-3.1309-2.0538-3.2204-2.0538-3.8466-1.7458-3.3099-1.2322-3.1309-.8216z" fill="#ff324f"/></g><path d="m152.885 72.2h15.36c3.669 0 6.379.96 8.128 2.88 1.792 1.92 2.688 4.288 2.688 7.104 0 2.7733-.704 5.0773-2.112 6.912-1.365 1.8347-3.243 3.0293-5.632 3.584v.256c6.741.64 10.112 4.4373 10.112 11.392 0 3.456-1.365 6.443-4.096 8.96-2.688 2.475-6.165 3.712-10.432 3.712h-14.016zm6.144 23.808v16h6.784c3.541 0 5.931-.704 7.168-2.112 1.28-1.408 1.92-3.349 1.92-5.824 0-2.517-.832-4.48-2.496-5.888-1.621-1.4507-4.181-2.176-7.68-2.176zm0-19.136v14.016h5.76c2.517 0 4.437-.6187 5.76-1.856s1.984-3.008 1.984-5.312-.555-4.0107-1.664-5.12c-1.067-1.152-2.965-1.728-5.696-1.728zm42.911 5.76c1.109 0 1.941.1067 2.496.32.597.1707 1.088.32 1.472.448.384.0853.618.1493.704.192l-1.024 5.76c-1.28-.4267-2.816-.64-4.608-.64-1.75 0-3.35.768-4.8 2.304-1.408 1.4933-2.112 3.3067-2.112 5.44v20.544h-5.76v-24.384l-.512-8.896 4.672-.64.704 6.464h.256c.725-2.0907 1.813-3.7547 3.264-4.992 1.493-1.28 3.242-1.92 5.248-1.92zm24.527 10.944c0-3.8827-1.771-5.824-5.312-5.824-2.262 0-5.312.5973-9.152 1.792l-2.048-4.032c3.669-1.92 7.637-2.88 11.904-2.88 5.162 0 8.32 1.536 9.472 4.608.597 1.5787.896 3.6693.896 6.272v13.632c0 3.072.874 5.504 2.624 7.296l-3.392 3.328c-.768-.469-1.558-1.152-2.368-2.048-.768-.939-1.302-1.856-1.6-2.752h-.192c-2.347 3.2-5.59 4.8-9.728 4.8-6.102 0-9.152-3.179-9.152-9.536 0-5.632 3.968-9.024 11.904-10.176l6.144-.896zm-11.905 15.36c0 2.475 1.515 3.712 4.545 3.712 3.072 0 5.525-1.067 7.36-3.2v-7.808c-5.376.725-8.683 1.579-9.92 2.56-1.323 1.067-1.985 2.645-1.985 4.736zm33.693 8.064h-5.76v-33.28l5.76-.64zm-3.136-35.776c-2.603 0-3.904-1.4507-3.904-4.352 0-1.0667.341-1.984 1.024-2.752.725-.768 1.835-1.152 3.328-1.152 2.603 0 3.904 1.4507 3.904 4.352 0 1.0667-.363 1.984-1.088 2.752-.683.768-1.771 1.152-3.264 1.152zm27.84 1.408c3.157 0 5.675.9173 7.552 2.752 1.877 1.792 2.816 4.6507 2.816 8.576v23.04h-5.76v-22.656c0-4.3947-2.197-6.592-6.592-6.592-1.28 0-2.539.32-3.776.96-1.237.5973-2.219 1.3013-2.944 2.112v26.176h-5.76v-24.384l-.512-8.896 4.672-.64.832 3.776h.256c.768-.9813 1.92-1.92 3.456-2.816 1.579-.9387 3.499-1.408 5.76-1.408zm17.534.832c0-3.4133 1.28-6.272 3.84-8.576s5.824-3.456 9.792-3.456 6.976.9813 9.024 2.944 3.221 4.6507 3.52 8.064l-6.528.64c-.128-1.9627-.789-3.4773-1.984-4.544-1.152-1.0667-2.752-1.6-4.8-1.6-2.005 0-3.584.4907-4.736 1.472s-1.728 2.24-1.728 3.776c0 2.048.661 3.712 1.984 4.992s3.584 2.7307 6.784 4.352c2.816 1.4507 4.736 2.5173 5.76 3.2 1.067.64 2.133 1.4507 3.2 2.432 2.048 1.8347 3.072 4.501 3.072 8s-1.323 6.485-3.968 8.96c-2.645 2.432-6.208 3.648-10.688 3.648s-8.725-1.387-12.736-4.16l2.624-4.736c3.968 2.261 7.701 3.392 11.2 3.392 2.091 0 3.797-.512 5.12-1.536 1.323-1.067 1.984-2.581 1.984-4.544 0-2.005-.683-3.584-2.048-4.736-1.323-1.152-3.008-2.1973-5.056-3.136-2.005-.9387-3.243-1.5147-3.712-1.728-.469-.256-1.259-.6827-2.368-1.28-1.109-.64-1.92-1.1733-2.432-1.6s-1.173-1.024-1.984-1.792c-.768-.8107-1.323-1.5787-1.664-2.304-.981-2.0053-1.472-4.0533-1.472-6.144zm38.933 3.52c2.432-2.9013 5.504-4.352 9.216-4.352s6.592 1.3227 8.64 3.968c2.091 2.6027 3.136 7.1467 3.136 13.632 0 3.285-.448 6.144-1.344 8.576-.853 2.389-1.984 4.203-3.392 5.44-2.688 2.347-5.589 3.52-8.704 3.52s-5.397-.683-6.848-2.048l-.192.064.192 1.6v11.392l-5.76.64v-36.8l-.512-8.896 4.672-.64.64 3.904zm.704 24c1.835 1.109 3.968 1.664 6.4 1.664s4.331-.896 5.696-2.688c1.365-1.835 2.048-5.205 2.048-10.112 0-5.9307-1.109-9.6427-3.328-11.136-.939-.64-2.091-.96-3.456-.96-3.243 0-5.696 1.0667-7.36 3.2zm43.087-17.408c0-3.8827-1.771-5.824-5.312-5.824-2.262 0-5.312.5973-9.152 1.792l-2.048-4.032c3.669-1.92 7.637-2.88 11.904-2.88 5.162 0 8.32 1.536 9.472 4.608.597 1.5787.896 3.6693.896 6.272v13.632c0 3.072.874 5.504 2.624 7.296l-3.392 3.328c-.768-.469-1.558-1.152-2.368-2.048-.768-.939-1.302-1.856-1.6-2.752h-.192c-2.347 3.2-5.59 4.8-9.728 4.8-6.102 0-9.152-3.179-9.152-9.536 0-5.632 3.968-9.024 11.904-10.176l6.144-.896zm-11.905 15.36c0 2.475 1.515 3.712 4.545 3.712 3.072 0 5.525-1.067 7.36-3.2v-7.808c-5.376.725-8.683 1.579-9.92 2.56-1.323 1.067-1.985 2.645-1.985 4.736zm25.693-8.512c0-5.3333 1.237-9.6213 3.712-12.864 2.517-3.2853 5.845-4.928 9.984-4.928 4.181 0 6.955.9813 8.32 2.944 1.408 1.92 2.112 4.736 2.112 8.448l-5.76.384c0-2.432-.363-4.1387-1.088-5.12-.725-1.024-2.197-1.536-4.416-1.536-4.48 0-6.72 4.16-6.72 12.48 0 8.277 2.859 12.416 8.576 12.416 2.517 0 5.184-.704 8-2.112l1.728 3.84c-1.067.939-2.581 1.749-4.544 2.432-1.963.64-4.075.96-6.336.96-9.045 0-13.568-5.781-13.568-17.344zm43.711-17.792c3.669 0 6.379 1.1093 8.128 3.328 1.451 1.792 2.347 4.8 2.688 9.024.128 1.664.192 3.7333.192 6.208l-2.624.384h-16.576c0 5.376 1.429 8.768 4.288 10.176 1.195.597 2.837.896 4.928.896s4.501-.683 7.232-2.048l1.792 3.968c-3.541 2.133-7.104 3.2-10.688 3.2-9.131 0-13.696-5.76-13.696-17.28 0-5.4613 1.195-9.792 3.584-12.992 2.432-3.2427 6.016-4.864 10.752-4.864zm4.864 14.4c0-3.4133-.341-5.8027-1.024-7.168-.683-1.408-2.261-2.112-4.736-2.112-2.432 0-4.16.832-5.184 2.496-1.024 1.6213-1.664 3.8827-1.92 6.784z" fill="#292929"/></svg>

<svg width="456" height="204" viewBox="0 0 456 204" fill="none" xmlns="http://www.w3.org/2000/svg">
<g filter="url(#filter0_d)">
<path d="M6 194.345L13.66 179.272L18.4829 167.475L22.4548 156.334L25.0081 147.16L26.994 136.346V126.844V117.997L26.1429 110.46L24.157 100.958L20.4689 90.7997L17.0644 83.5908L14.5111 78.6757L12.5252 73.4329L11.1067 67.5348L10.2555 59.6706V52.7895V45.9083V41.6486L11.1067 37.7165L12.5252 33.4567L14.5111 28.5416L15.9296 25.2649L17.9155 22.3158L20.4689 19.039L23.3059 16.09L27.5614 12.4856L31.5333 9.5365L36.6399 7.24278L41.7466 5.27674L46.8532 3.96604L52.5273 2.65535L59.0525 2H64.4428H66.7124H69.2658L73.805 2.65535L76.642 3.3107L81.1813 3.96604L83.4509 4.62139L87.7065 6.25976L89.6924 7.24278L92.2457 8.55348L95.0827 10.5195L99.0546 13.4686L101.892 16.09L104.729 19.039L107.566 23.2988L109.835 26.5756L112.389 32.146L113.807 37.0611L115.226 41.9762L116.928 47.8744L117.779 52.7895V54.7555V58.6876L116.928 62.292L116.36 65.5688V68.1902L116.928 71.7946L118.914 74.7436L121.751 78.6757L124.872 83.2632L127.709 87.1952L129.695 91.455V93.7487L127.709 95.0594L124.304 96.6978L121.751 98.3362L119.481 100.302L118.914 103.907L119.481 106.528L120.616 109.149L117.779 112.098L118.914 116.031L117.779 118.324L115.509 120.946L114.942 123.239L115.509 127.827L116.36 134.708L115.509 137.985L113.807 139.951L111.254 141.917L106.715 142.572H101.608L96.5013 141.917L91.6783 142.572L88.5576 144.211L87.4228 147.815L86.0042 152.73L84.5857 158.956L83.7346 165.837V169.769L84.5857 175.995L86.0042 181.565L87.9902 188.447L89.9761 195" stroke="#292929" stroke-width="4"/>
<path d="M67.9917 18.9004H64.9502H60.5669H55.5574L52.5159 19.5165L45.5383 20.8515L42.6757 22.1865L39.0975 24.5484L36.3244 27.4237L33.7302 30.8125L31.2254 35.0228L28.989 38.7197L26.3948 44.3677L25.1424 48.4753L24.4268 52.0695V55.4582V59.6686L25.5897 61.7224L27.8261 63.3654L28.989 64.5977V65.7273L28.4523 67.0623L27.8261 68.7053V70.2457L28.989 72.9156L30.8676 75.5856L33.6407 78.769L36.4138 80.4121L40.5288 81.9524L43.5409 83.4928H46.3434H49.8492C51.5961 83.4928 52.6948 81.9524 52.6948 81.9524L55.4679 78.769L57.9727 75.5856L60.5669 74.1479L63.0716 72.0941C63.0716 72.0941 64.6965 71.4786 65.7553 71.5807C66.99 71.6997 68.7074 72.9156 68.7074 72.9156L72.6434 74.1479H75.0587L76.49 73.5318L78.3686 72.0941L81.0522 71.5807L82.7519 70.2457L84.2727 68.0892L85.4356 63.9816L86.9563 63.3654L89.8189 62.3385L93.0393 61.7224L96.2597 60.6955L98.4961 58.4363L100.375 56.0744L101.359 53.1991V50.0156L100.911 46.5242L100.375 44.0596L99.5696 41.595L98.4961 38.617L96.2597 35.0228L94.0233 31.7367L91.6975 29.7856L88.5665 27.4237L85.4356 25.3699L82.2152 23.3161L78.3686 21.5703L75.0587 20.3381L71.9278 19.5165L67.9917 18.9004Z" fill="#FF324F" stroke="#292929" stroke-width="4"/>
</g>
<path d="M152.885 72.2H168.245C171.914 72.2 174.624 73.16 176.373 75.08C178.165 77 179.061 79.368 179.061 82.184C179.061 84.9573 178.357 87.2613 176.949 89.096C175.584 90.9307 173.706 92.1253 171.317 92.68V92.936C178.058 93.576 181.429 97.3733 181.429 104.328C181.429 107.784 180.064 110.771 177.333 113.288C174.645 115.763 171.168 117 166.901 117H152.885V72.2ZM159.029 96.008V112.008H165.813C169.354 112.008 171.744 111.304 172.981 109.896C174.261 108.488 174.901 106.547 174.901 104.072C174.901 101.555 174.069 99.592 172.405 98.184C170.784 96.7333 168.224 96.008 164.725 96.008H159.029ZM159.029 76.872V90.888H164.789C167.306 90.888 169.226 90.2693 170.549 89.032C171.872 87.7947 172.533 86.024 172.533 83.72C172.533 81.416 171.978 79.7093 170.869 78.6C169.802 77.448 167.904 76.872 165.173 76.872H159.029ZM201.94 82.632C203.049 82.632 203.881 82.7387 204.436 82.952C205.033 83.1227 205.524 83.272 205.908 83.4C206.292 83.4853 206.526 83.5493 206.612 83.592L205.588 89.352C204.308 88.9253 202.772 88.712 200.98 88.712C199.23 88.712 197.63 89.48 196.18 91.016C194.772 92.5093 194.068 94.3227 194.068 96.456V117H188.308V92.616L187.796 83.72L192.468 83.08L193.172 89.544H193.428C194.153 87.4533 195.241 85.7893 196.692 84.552C198.185 83.272 199.934 82.632 201.94 82.632ZM226.467 93.576C226.467 89.6933 224.696 87.752 221.155 87.752C218.893 87.752 215.843 88.3493 212.003 89.544L209.955 85.512C213.624 83.592 217.592 82.632 221.859 82.632C227.021 82.632 230.179 84.168 231.331 87.24C231.928 88.8187 232.227 90.9093 232.227 93.512V107.144C232.227 110.216 233.101 112.648 234.851 114.44L231.459 117.768C230.691 117.299 229.901 116.616 229.091 115.72C228.323 114.781 227.789 113.864 227.491 112.968H227.299C224.952 116.168 221.709 117.768 217.571 117.768C211.469 117.768 208.419 114.589 208.419 108.232C208.419 102.6 212.387 99.208 220.323 98.056L226.467 97.16V93.576ZM214.562 108.936C214.562 111.411 216.077 112.648 219.107 112.648C222.179 112.648 224.632 111.581 226.467 109.448V101.64C221.091 102.365 217.784 103.219 216.547 104.2C215.224 105.267 214.562 106.845 214.562 108.936ZM248.255 117H242.495V83.72L248.255 83.08V117ZM245.119 81.224C242.516 81.224 241.215 79.7733 241.215 76.872C241.215 75.8053 241.556 74.888 242.239 74.12C242.964 73.352 244.074 72.968 245.567 72.968C248.17 72.968 249.471 74.4187 249.471 77.32C249.471 78.3867 249.108 79.304 248.383 80.072C247.7 80.84 246.612 81.224 245.119 81.224ZM272.959 82.632C276.116 82.632 278.634 83.5493 280.511 85.384C282.388 87.176 283.327 90.0347 283.327 93.96V117H277.567V94.344C277.567 89.9493 275.37 87.752 270.975 87.752C269.695 87.752 268.436 88.072 267.199 88.712C265.962 89.3093 264.98 90.0133 264.255 90.824V117H258.495V92.616L257.983 83.72L262.655 83.08L263.487 86.856H263.743C264.511 85.8747 265.663 84.936 267.199 84.04C268.778 83.1013 270.698 82.632 272.959 82.632ZM290.493 83.464C290.493 80.0507 291.773 77.192 294.333 74.888C296.893 72.584 300.157 71.432 304.125 71.432C308.093 71.432 311.101 72.4133 313.149 74.376C315.197 76.3387 316.37 79.0267 316.669 82.44L310.141 83.08C310.013 81.1173 309.352 79.6027 308.157 78.536C307.005 77.4693 305.405 76.936 303.357 76.936C301.352 76.936 299.773 77.4267 298.621 78.408C297.469 79.3893 296.893 80.648 296.893 82.184C296.893 84.232 297.554 85.896 298.877 87.176C300.2 88.456 302.461 89.9067 305.661 91.528C308.477 92.9787 310.397 94.0453 311.421 94.728C312.488 95.368 313.554 96.1787 314.621 97.16C316.669 98.9947 317.693 101.661 317.693 105.16C317.693 108.659 316.37 111.645 313.725 114.12C311.08 116.552 307.517 117.768 303.037 117.768C298.557 117.768 294.312 116.381 290.301 113.608L292.925 108.872C296.893 111.133 300.626 112.264 304.125 112.264C306.216 112.264 307.922 111.752 309.245 110.728C310.568 109.661 311.229 108.147 311.229 106.184C311.229 104.179 310.546 102.6 309.181 101.448C307.858 100.296 306.173 99.2507 304.125 98.312C302.12 97.3733 300.882 96.7973 300.413 96.584C299.944 96.328 299.154 95.9013 298.045 95.304C296.936 94.664 296.125 94.1307 295.613 93.704C295.101 93.2773 294.44 92.68 293.629 91.912C292.861 91.1013 292.306 90.3333 291.965 89.608C290.984 87.6027 290.493 85.5547 290.493 83.464ZM329.426 86.984C331.858 84.0827 334.93 82.632 338.642 82.632C342.354 82.632 345.234 83.9547 347.282 86.6C349.373 89.2027 350.418 93.7467 350.418 100.232C350.418 103.517 349.97 106.376 349.074 108.808C348.221 111.197 347.09 113.011 345.682 114.248C342.994 116.595 340.093 117.768 336.978 117.768C333.863 117.768 331.581 117.085 330.13 115.72L329.938 115.784L330.13 117.384V128.776L324.37 129.416V92.616L323.858 83.72L328.53 83.08L329.17 86.984H329.426ZM330.13 110.984C331.965 112.093 334.098 112.648 336.53 112.648C338.962 112.648 340.861 111.752 342.226 109.96C343.591 108.125 344.274 104.755 344.274 99.848C344.274 93.9173 343.165 90.2053 340.946 88.712C340.007 88.072 338.855 87.752 337.49 87.752C334.247 87.752 331.794 88.8187 330.13 90.952V110.984ZM373.217 93.576C373.217 89.6933 371.446 87.752 367.905 87.752C365.643 87.752 362.593 88.3493 358.753 89.544L356.705 85.512C360.374 83.592 364.342 82.632 368.609 82.632C373.771 82.632 376.929 84.168 378.081 87.24C378.678 88.8187 378.977 90.9093 378.977 93.512V107.144C378.977 110.216 379.851 112.648 381.601 114.44L378.209 117.768C377.441 117.299 376.651 116.616 375.841 115.72C375.073 114.781 374.539 113.864 374.241 112.968H374.049C371.702 116.168 368.459 117.768 364.321 117.768C358.219 117.768 355.169 114.589 355.169 108.232C355.169 102.6 359.137 99.208 367.073 98.056L373.217 97.16V93.576ZM361.312 108.936C361.312 111.411 362.827 112.648 365.857 112.648C368.929 112.648 371.382 111.581 373.217 109.448V101.64C367.841 102.365 364.534 103.219 363.297 104.2C361.974 105.267 361.312 106.845 361.312 108.936ZM387.005 100.424C387.005 95.0907 388.242 90.8027 390.717 87.56C393.234 84.2747 396.562 82.632 400.701 82.632C404.882 82.632 407.656 83.6133 409.021 85.576C410.429 87.496 411.133 90.312 411.133 94.024L405.373 94.408C405.373 91.976 405.01 90.2693 404.285 89.288C403.56 88.264 402.088 87.752 399.869 87.752C395.389 87.752 393.149 91.912 393.149 100.232C393.149 108.509 396.008 112.648 401.725 112.648C404.242 112.648 406.909 111.944 409.725 110.536L411.453 114.376C410.386 115.315 408.872 116.125 406.909 116.808C404.946 117.448 402.834 117.768 400.573 117.768C391.528 117.768 387.005 111.987 387.005 100.424ZM430.716 82.632C434.385 82.632 437.095 83.7413 438.844 85.96C440.295 87.752 441.191 90.76 441.532 94.984C441.66 96.648 441.724 98.7173 441.724 101.192L439.1 101.576H422.524C422.524 106.952 423.953 110.344 426.812 111.752C428.007 112.349 429.649 112.648 431.74 112.648C433.831 112.648 436.241 111.965 438.972 110.6L440.764 114.568C437.223 116.701 433.66 117.768 430.076 117.768C420.945 117.768 416.38 112.008 416.38 100.488C416.38 95.0267 417.575 90.696 419.964 87.496C422.396 84.2533 425.98 82.632 430.716 82.632ZM435.58 97.032C435.58 93.6187 435.239 91.2293 434.556 89.864C433.873 88.456 432.295 87.752 429.82 87.752C427.388 87.752 425.66 88.584 424.636 90.248C423.612 91.8693 422.972 94.1307 422.716 97.032H435.58Z" fill="#292929"/>
<defs>
<filter id="filter0_d" x="0.216797" y="0" width="375.158" height="203.58" filterUnits="userSpaceOnUse" color-interpolation-filters="sRGB">
<feFlood flood-opacity="0" result="BackgroundImageFix"/>
<feColorMatrix in="SourceAlpha" type="matrix" values="0 0 0 0 0 0 0 0 0 0 0 0 0 0 0 0 0 0 127 0"/>
<feOffset dy="4"/>
<feGaussianBlur stdDeviation="2"/>
<feColorMatrix type="matrix" values="0 0 0 0 0 0 0 0 0 0 0 0 0 0 0 0 0 0 0.25 0"/>
<feBlend mode="normal" in2="BackgroundImageFix" result="effect1_dropShadow"/>
<feBlend mode="normal" in="SourceGraphic" in2="effect1_dropShadow" result="shape"/>
</filter>
</defs>
</svg>
